!!!COM: Bartok, Bela
!!!OTL: Thumb under
!!!ONM: 98
!!!OPR: Mikrokosmos, Vol. IV
!! Boosey & Hawkes Ltd. (London) 1955, copyright 1940 p.8
**kern	**kern
*M2/4	*M2/4
{4F	{4f
=1	=1
4.G^	4.g^
8A	8a
=2	=2
4.B-	4.b-
8A	8a
=3	=3
8G	8g
8F	8f
8E	8e
8D}	8d}
=4	=4
{8G	{8g
8A	8a
8B-	8b-
8G	8g
=5	=5
4c#	4cc#
4A	4a
=6	=6
4G}	4g}
{4C#	{4cc#
=7	=7
4.D^	4.dd^
8E	8ee
=8	=8
4.F	4.ff
8E	8ee
=9	=9
8D	8dd
8C	8cc
8BBn	8bn
8AA}	8a}
=10	=10
{8D	{8dd
8E	8ee
8F	8ff
8D	8dd
=11	=11
4G#	4gg#
4E	4ee
=12	=12
4D}	4dd}
4r	4r
=13	=13
{4.B-^	{4.bb-^
8A	8aa
=14	=14
8G	8gg
8F#	8ff#
8E	8ee
8D}	8dd}
=15	=15
{4A-^	{4aa-^
8G	8gg
8F	8ff
=16	=16
8E	8ee
8D	8dd
4C}	4cc}
=17	=17
{4F#^	{4ff#^
8Fn	8ffn
8E-	8ee-
=18	=18
8D	8dd
8C	8cc
8BBn	8bn
8C	8cc
=19	=19
4C#	4cc#
4AA	4a
=20	=20
4GG}	4g}
4r	[{4bb-^
=21	=21
{4.B-^	4.bb-]
8A	8aa
=22	=22
8G	8gg
8F#	8ff#
8E	8ee
8D}	8dd}
=23	=23
{4A-^	8r
.	{8aa-
8G	8gg
8F	8ff
=24	=24
8E	8ee
8D	8dd
4C}	4cc}
=25	=25
8r	{8ff#
{8F	8ffn
8E-	8ee-
8D	8dd
=26	=26
8C	8cc
8BBn	8bn
8BB-	8b-
8AA-	8a-
=27	=27
4C#	4cc#
4AAn	4an
=28	=28
4GG}	4g}
4r	4r
==	==
*-	*-
